X: 2
T: La Ligue de Vieux Poele (in A)
C: Quebecois
L: 1/8
M: 4/4
K: Amaj
"A"A3 B c3 B | BAGE "E"BEFG | "A"AEBE c2 Bc | BAGE "D"FD "E"E2 |
"A"A3 B c3 B | BAGE "E"BEFG | "A"AEBE c2 Bc | BAGE "D"F3 E :||
"E"B3 B AGFE | "A"AEcA BAcA | "D"d3 d "A"cBAc | "F#m"BFFE F4 |1
"E"B3 B AGFE | "A"AEcA BAcA | "D"d3 d "A"cBAc | "E"+accent+BBB +accent+BBB +accent+BA :||2
"E"B3 B AGFE | "A"AEcA BABc | "D"d3 d "A"cBAc | "E"BEdc BAcB ||
